assets/svgs/objects/computer/Computer11.svg

<svg id="emoji" viewBox="0 0 72 72" xmlns="http://www.w3.org/2000/svg">
  <g id="color">
    <path fill="#d0cfce" stroke="none" d="M59.971,42.7985c0-0.5523,0.4477-1,1-1h4.143v-9.183h-4.143c-0.5523,0-1-0.4477-1-1 M59.971,31.6155v-7.159 H6.662v25.013h53.309v-6.671"/>
    <path fill="#d0cfce" stroke="none" d="M61.083,32.3485c-0.5523,0-1-0.4477-1-1v-7.159H36.967H6.773v25.013h11.736h41.577v-6.671 c0-0.5523,0.4477-1,1-1h4.143v-9.183H61.083z"/>
    <path fill="#b1cc33" stroke="none" d="M12.002,45.3665h32.239v-17.007H12.002V45.3665z"/>
  </g>
  <g id="hair"/>
  <g id="skin"/>
  <g id="skin-shadow"/>
  <g id="line">
    <path fill="none" stroke="#000000" stroke-linecap="round" stroke-linejoin="round" stroke-width="2" d="M61.081,31.3475v-7.159 c0-0.5523-0.4477-1-1-1H6.772c-0.5523,0-1,0.4477-1,1v25.016c0,0.5523,0.4477,1,1,1h53.313c0.5523,0,1-0.4477,1-1v-6.674h5.143 v-11.183H61.081z"/>
    <rect x="11" y="27.3595" width="34.239" height="19.007" fill="none" stroke="#000000" stroke-linecap="round" stroke-linejoin="round" stroke-width="2"/>
  </g>
</svg>

<svg xmlns="http://www.w3.org/2000/svg" viewBox="0 0 72 72"><path fill="#d0cfce" d="M59.971 42.798a1 1 0 011-1h4.143v-9.183h-4.143a1 1 0 01-1-1m0 0v-7.158H6.662V49.47h53.309v-6.671"/><path fill="#d0cfce" d="M61.083 32.349a1 1 0 01-1-1v-7.16H6.773v25.014h53.313V42.53a1 1 0 011-1h4.143V32.35h-4.146z"/><path fill="#b1cc33" d="M12.002 45.367h32.239V28.36H12.002v17.007z"/><g fill="none" stroke="#000" stroke-linecap="round" stroke-linejoin="round" stroke-width="2"><path d="M61.081 31.348v-7.16a1 1 0 00-1-1H6.772a1 1 0 00-1 1v25.017a1 1 0 001 1h53.313a1 1 0 001-1V42.53h5.143V31.347h-5.147z"/><path d="M11 27.36h34.239v19.007H11z"/></g></svg>
